X:218 
T:Two and Sixpenny Girl  
B:CRE 3.015 (CailÃÂÃÂÃÂÃÂ­n na LeathchorÃÂÃÂÃÂÃÂ³nach)
F:file ID: cre.3/218two_and6
N:I did a little rearranging of the first and second
endings in the second part.
L:1/8
%Q:160
M:6/8
R:jig
K:G
GA|:BGG Add|BGG ADD|BGG ADD|GBA G/F/ED|
"5"BGG AFF|BAG ABc|dge f2d|1 cAF G2A:|2 cAF G3||
|:"9"GBd g2e|fed cAF|GBd g3|f/g/af g3|
[1"13"f/g/af g2e|fed cAF|Bc/d/B BAG|Bc/d/B cBA:|
[2 "13a"f/g/af g2e|fed cde|fga gfe|d3 dcA||
|:"17"GBB B2d|cAA AFD|GBB BAG|B/c/dB cBA|
"21"GBB B2d|cAA ABc|dge f2d|1 cAF G2G:|2 cAF G3||

%%%

